miniprogram/assets/figma/stat-star.svg

<svg width="16" height="16" viewBox="0 0 16 16" fill="none" xmlns="http://www.w3.org/2000/svg">
<path fill-rule="evenodd" clip-rule="evenodd" d="M6.94943 1.99259C7.37368 1.1125 8.62707 1.11249 9.05131 1.99259L10.4718 4.93946C10.5207 5.04082 10.6174 5.11069 10.729 5.12525L13.9842 5.55002C14.9607 5.67744 15.3498 6.88271 14.6321 7.55707L12.261 9.78526C12.1781 9.86309 12.1407 9.97775 12.1616 10.0895L12.7585 13.2808C12.9387 14.2441 11.9229 14.9869 11.0596 14.5231L8.15813 12.9642C8.05962 12.9113 7.94113 12.9113 7.84261 12.9642L4.94115 14.5231C4.07787 14.9869 3.06202 14.2441 3.24221 13.2808L3.83918 10.0895C3.86008 9.97775 3.82262 9.86309 3.73979 9.78526L1.36861 7.55707C0.650964 6.88271 1.04008 5.67744 2.01657 5.55002L5.27178 5.12525C5.38336 5.11069 5.48006 5.04082 5.52892 4.93946L6.94943 1.99259ZM8.45078 2.28207C8.26896 1.90489 7.73179 1.90489 7.54997 2.28207L6.12946 5.22894C5.98288 5.53303 5.69278 5.74263 5.35804 5.78631L2.10283 6.21108C1.68434 6.26569 1.51757 6.78223 1.82513 7.07125L4.19632 9.29944C4.44479 9.53292 4.55717 9.87691 4.49448 10.212L3.89751 13.4034C3.82029 13.8162 4.25565 14.1346 4.62563 13.9358L7.52709 12.3769C7.82264 12.2181 8.17811 12.2181 8.47366 12.3769L11.3751 13.9358C11.7451 14.1346 12.1805 13.8162 12.1032 13.4034L11.5063 10.212C11.4436 9.87691 11.556 9.53292 11.8044 9.29944L14.1756 7.07125C14.4832 6.78223 14.3164 6.26569 13.8979 6.21108L10.6427 5.78631C10.308 5.74263 10.0179 5.53303 9.87129 5.22894L8.45078 2.28207Z" fill="#353566"/>
</svg>

<svg xmlns="http://www.w3.org/2000/svg" width="16" height="16" fill="none" viewBox="0 0 16 16"><path fill="#353566" fill-rule="evenodd" d="M6.95 1.993c.424-.88 1.677-.88 2.101 0l1.42 2.946a.33.33 0 0 0 .258.186l3.255.425c.977.127 1.366 1.333.648 2.007l-2.371 2.228a.33.33 0 0 0-.1.304l.598 3.192c.18.963-.836 1.706-1.7 1.242l-2.9-1.559a.33.33 0 0 0-.316 0l-2.902 1.56c-.863.463-1.879-.28-1.699-1.243l.597-3.192a.33.33 0 0 0-.1-.304L1.37 7.557c-.718-.674-.329-1.88.648-2.007l3.255-.425a.33.33 0 0 0 .257-.186zm1.5.29a.5.5 0 0 0-.9 0L6.13 5.228a1 1 0 0 1-.772.557l-3.255.425a.5.5 0 0 0-.278.86L4.196 9.3a1 1 0 0 1 .298.913l-.596 3.191a.5.5 0 0 0 .728.533l2.901-1.56a1 1 0 0 1 .947 0l2.901 1.56a.5.5 0 0 0 .728-.533l-.597-3.191a1 1 0 0 1 .298-.913l2.372-2.228a.5.5 0 0 0-.278-.86l-3.255-.425a1 1 0 0 1-.772-.557z" clip-rule="evenodd"/></svg>
